X: 1070
T: The Kilfinane Jig
R:double jig
N:"collected by J.O'Neill"
B:O'Neill's 1070
Z:Transcribed by henrik.norbeck@mailbox.swipnet.se
M:6/8
L:1/8
K:D
(d/B/)|ADD F2d|cAA BAG|FDD A2d|cAF GAG|
FED def|ged cd(e/g/)|fed cAF|GFD D2:|
(d/B/)|ABA fed|eAB cAG|ABA fed|eEF GAB|
ABA fed|eAB cd(e/g/)|fed cAF|GFD D2:|


